X: 30052
M: 6/8
L: 1/8
K: Eb
EGB e2B | cB=A B2G | AGF GFE | FG=A B2 B, |\
EGB e2B | cBA B2B | BBB BB2 | ded G2B |
E (3G/F/G/ (3B/A/B/ e2d | d/c/ B/c/ d/c/ B2B | Bfc dec | BcB E2z :|


